packages/foundations/assets/icons/functional/images/notification/cross_circle_32.svg

<svg width="32" height="32" viewBox="0 0 32 32" fill="none" xmlns="http://www.w3.org/2000/svg">
<g clip-path="url(#clip0_187_159)">
<path fill-rule="evenodd" clip-rule="evenodd" d="M16 2C23.7188 2 30 8.2813 30 16C30 23.7187 23.7188 30 16 30C8.28125 30 2 23.7187 2 16C2 8.2813 8.28125 2 16 2ZM16 4C9.375 4 4 9.375 4 16C4 22.625 9.375 28 16 28C22.625 28 28 22.625 28 16C28 9.375 22.625 4 16 4ZM10 11C10 10.4375 10.4063 10 11 10C11.2813 10 11.5 10.0625 11.7188 10.2813L16 14.5625L20.2812 10.2813C20.5 10.0625 20.75 10 21 10C21.5625 10 22 10.4063 22 11C22 11.2813 21.9375 11.5 21.7188 11.7188L17.4375 16L21.7188 20.2812C21.9062 20.4687 22 20.75 22 21C22 21.5625 21.5938 22 21 22C20.7188 22 20.5312 21.9687 20.2812 21.7187L16 17.4375L11.7188 21.7187C11.5 21.9375 11.25 22 11 22C10.4375 22 10 21.5937 10 21C10 20.75 10.0313 20.5312 10.2813 20.2812L14.5625 16L10.2813 11.7188C10.0625 11.5 10 11.25 10 11Z" fill="#1A1C1F"/>
</g>
<defs>
<clipPath id="clip0_187_159">
<rect width="32" height="32" fill="white"/>
</clipPath>
</defs>
</svg>

<svg xmlns="http://www.w3.org/2000/svg" width="32" height="32" fill="none"><g clip-path="url(#a)"><path fill="#1A1C1F" fill-rule="evenodd" d="M16 2c7.719 0 14 6.281 14 14s-6.281 14-14 14S2 23.719 2 16 8.281 2 16 2m0 2C9.375 4 4 9.375 4 16s5.375 12 12 12 12-5.375 12-12S22.625 4 16 4m-6 7c0-.562.406-1 1-1 .281 0 .5.063.719.281L16 14.562l4.281-4.28A.96.96 0 0 1 21 10c.563 0 1 .406 1 1 0 .281-.062.5-.281.719L17.437 16l4.282 4.281c.187.188.281.469.281.719 0 .563-.406 1-1 1-.281 0-.469-.031-.719-.281L16 17.437l-4.281 4.282A.96.96 0 0 1 11 22c-.562 0-1-.406-1-1 0-.25.031-.469.281-.719L14.562 16l-4.28-4.281A.96.96 0 0 1 10 11" clip-rule="evenodd"/></g><defs><clipPath id="a"><path fill="#fff" d="M0 0h32v32H0z"/></clipPath></defs></svg>
